src/img/watch.svg

<svg width="16" height="10" viewBox="0 0 16 10" fill="none" xmlns="http://www.w3.org/2000/svg">
<path d="M7.63998 9.71503C3.56998 9.71503 0.37999 5.71503 0.23999 5.52503L-1.52588e-05 5.21503L0.23999 4.90503C0.37999 4.73503 3.56998 0.715027 7.63998 0.715027C11.71 0.715027 14.89 4.71503 15.03 4.90503L15.27 5.21503L15.03 5.52503C14.89 5.69503 11.7 9.71503 7.63998 9.71503ZM1.28999 5.21503C2.09999 6.12503 4.66998 8.71503 7.63998 8.71503C10.61 8.71503 13.17 6.12503 13.98 5.21503C13.17 4.30503 10.6 1.71503 7.63998 1.71503C4.67998 1.71503 2.09999 4.30503 1.28999 5.21503ZM7.63998 7.31503C7.08303 7.31503 6.54889 7.09378 6.15506 6.69995C5.76123 6.30613 5.53999 5.77198 5.53999 5.21503C5.53999 4.65807 5.76123 4.12393 6.15506 3.7301C6.54889 3.33628 7.08303 3.11503 7.63998 3.11503C8.19613 3.11766 8.72875 3.33975 9.12201 3.73301C9.51527 4.12627 9.73736 4.65888 9.73999 5.21503C9.73736 5.77117 9.51527 6.30379 9.12201 6.69705C8.72875 7.09031 8.19613 7.3124 7.63998 7.31503ZM7.63998 4.11503C7.34825 4.11503 7.06846 4.23092 6.86217 4.43721C6.65588 4.6435 6.53999 4.92329 6.53999 5.21503C6.53999 5.50676 6.65588 5.78656 6.86217 5.99285C7.06846 6.19914 7.34825 6.31503 7.63998 6.31503C7.93172 6.31503 8.21151 6.19914 8.4178 5.99285C8.62409 5.78656 8.73999 5.50676 8.73999 5.21503C8.73479 4.92584 8.61692 4.65011 8.41147 4.44653C8.20602 4.24294 7.92921 4.12759 7.63998 4.12503V4.11503Z" fill="black"/>
</svg>

<svg width="16" height="10" fill="none" xmlns="http://www.w3.org/2000/svg"><path d="M7.64 9.715c-4.07 0-7.26-4-7.4-4.19L0 5.215l.24-.31c.14-.17 3.33-4.19 7.4-4.19s7.25 4 7.39 4.19l.24.31-.24.31c-.14.17-3.33 4.19-7.39 4.19Zm-6.35-4.5c.81.91 3.38 3.5 6.35 3.5 2.97 0 5.53-2.59 6.34-3.5-.81-.91-3.38-3.5-6.34-3.5s-5.54 2.59-6.35 3.5Zm6.35 2.1a2.1 2.1 0 0 1 0-4.2 2.11 2.11 0 0 1 2.1 2.1 2.11 2.11 0 0 1-2.1 2.1Zm0-3.2a1.1 1.1 0 1 0 1.1 1.1 1.11 1.11 0 0 0-1.1-1.09v-.01Z" fill="#000"/></svg>
